frontend/src/assets/app-icons/equalizer.svg

<svg width="72" height="72" viewBox="0 0 72 72" fill="none" xmlns="http://www.w3.org/2000/svg">
<rect width="72" height="72" rx="18" fill="url(#paint0_linear_3276_3103)"/>
<path d="M21.375 16.125C22.4796 16.125 23.375 17.0204 23.375 18.125V31.0469C26.1963 31.9035 28.25 34.5238 28.25 37.625C28.25 40.7261 26.1961 43.3454 23.375 44.2021V53.875C23.375 54.9796 22.4796 55.875 21.375 55.875C20.2704 55.875 19.375 54.9796 19.375 53.875V44.2021C16.5539 43.3454 14.5 40.7261 14.5 37.625C14.5 34.5238 16.5537 31.9035 19.375 31.0469V18.125C19.375 17.0204 20.2704 16.125 21.375 16.125ZM36 16.125C37.1046 16.125 38 17.0204 38 18.125V21.2969C40.8213 22.1535 42.875 24.7738 42.875 27.875C42.875 30.9761 40.8211 33.5954 38 34.4521V53.875C38 54.9796 37.1046 55.875 36 55.875C34.8954 55.875 34 54.9796 34 53.875V34.4521C31.1789 33.5954 29.125 30.9761 29.125 27.875C29.125 24.7738 31.1787 22.1535 34 21.2969V18.125C34 17.0204 34.8954 16.125 36 16.125ZM50.625 16.125C51.7296 16.125 52.625 17.0204 52.625 18.125V37.5469C55.4463 38.4035 57.5 41.0238 57.5 44.125C57.5 47.2261 55.4461 49.8454 52.625 50.7021V53.875C52.625 54.9796 51.7296 55.875 50.625 55.875C49.5204 55.875 48.625 54.9796 48.625 53.875V50.7021C45.8039 49.8454 43.75 47.2261 43.75 44.125C43.75 41.0238 45.8037 38.4035 48.625 37.5469V18.125C48.625 17.0204 49.5204 16.125 50.625 16.125ZM50.625 41.25C49.0372 41.25 47.75 42.5372 47.75 44.125C47.75 45.7128 49.0372 47 50.625 47C52.2128 47 53.5 45.7128 53.5 44.125C53.5 42.5372 52.2128 41.25 50.625 41.25ZM21.375 34.75C19.7872 34.75 18.5 36.0372 18.5 37.625C18.5 39.2128 19.7872 40.5 21.375 40.5C22.9628 40.5 24.25 39.2128 24.25 37.625C24.25 36.0372 22.9628 34.75 21.375 34.75ZM36 25C34.4122 25 33.125 26.2872 33.125 27.875C33.125 29.4628 34.4122 30.75 36 30.75C37.5878 30.75 38.875 29.4628 38.875 27.875C38.875 26.2872 37.5878 25 36 25Z" fill="url(#paint1_linear_3276_3103)"/>
<defs>
<linearGradient id="paint0_linear_3276_3103" x1="36" y1="0" x2="36" y2="72" gradientUnits="userSpaceOnUse">
<stop stop-color="#393E3B"/>
<stop offset="1" stop-color="#1D201E"/>
</linearGradient>
<linearGradient id="paint1_linear_3276_3103" x1="36" y1="16.125" x2="36" y2="55.875" gradientUnits="userSpaceOnUse">
<stop stop-color="white"/>
<stop offset="1" stop-color="#C7D6E5"/>
</linearGradient>
</defs>
</svg>

<svg xmlns="http://www.w3.org/2000/svg" width="72" height="72" fill="none"><rect width="72" height="72" fill="url(#a)" rx="18"/><path fill="url(#b)" d="M21.375 16.125a2 2 0 0 1 2 2v12.922a6.876 6.876 0 0 1 0 13.155v9.673a2 2 0 1 1-4 0v-9.673a6.876 6.876 0 0 1 0-13.155V18.125a2 2 0 0 1 2-2Zm14.625 0a2 2 0 0 1 2 2v3.172a6.876 6.876 0 0 1 0 13.155v19.423a2 2 0 1 1-4 0V34.452a6.876 6.876 0 0 1 0-13.155v-3.172a2 2 0 0 1 2-2Zm14.625 0a2 2 0 0 1 2 2v19.422a6.876 6.876 0 0 1 0 13.155v3.173a2 2 0 1 1-4 0v-3.173a6.876 6.876 0 0 1 0-13.155V18.125a2 2 0 0 1 2-2Zm0 25.125a2.875 2.875 0 1 0 0 5.75 2.875 2.875 0 0 0 0-5.75Zm-29.25-6.5a2.875 2.875 0 1 0 0 5.75 2.875 2.875 0 0 0 0-5.75ZM36 25a2.875 2.875 0 1 0 0 5.75A2.875 2.875 0 0 0 36 25Z"/><defs><linearGradient id="a" x1="36" x2="36" y1="0" y2="72" gradientUnits="userSpaceOnUse"><stop stop-color="#393E3B"/><stop offset="1" stop-color="#1D201E"/></linearGradient><linearGradient id="b" x1="36" x2="36" y1="16.125" y2="55.875" gradientUnits="userSpaceOnUse"><stop stop-color="#fff"/><stop offset="1" stop-color="#C7D6E5"/></linearGradient></defs></svg>
